portfolioFront/src/img/bg.svg

<svg width="602" height="5922" viewBox="0 0 602 5922" fill="none" xmlns="http://www.w3.org/2000/svg">
<g clip-path="url(#clip0_643_2)">
<path opacity="0.3" d="M540.57 0.419922C538.94 3.80992 535.41 12.3699 537.91 22.2399C540.84 33.7899 550.24 40.0199 554.54 42.8599C565.41 50.0499 571.35 47.5999 584.47 54.8299C591.94 58.9499 597.19 63.6899 600.27 66.7999" stroke="#FABEB3" stroke-opacity="0.5" stroke-miterlimit="10"/>
<path d="M501.33 0.419922C517.06 10.4799 523.58 21.0199 526.6 28.8899C529.49 36.3899 528.5 39.6399 532.59 48.1799C535.21 53.6699 540.91 65.5799 552.54 71.4599C563.35 76.9299 568.81 71.8799 585.13 77.4499C591.8 79.7299 596.93 82.6299 600.26 84.7699" stroke="#FABEB3" stroke-opacity="0.5" stroke-miterlimit="10"/>
<path d="M4.97998 123.99C29.67 130.99 43.25 142.29 51.06 151.26C59.3 160.72 59.68 165.92 73.01 185.18C79.12 194.01 88.51 207.58 99.61 218.43C113.72 232.22 126.02 237.13 159.47 251.68C222.16 278.96 215.52 277.61 223.98 280.28C264.65 293.11 283.84 281.88 349.02 277.62C391.97 274.81 444.56 271.37 498.66 287.6C544.13 301.24 577.9 324.93 600.25 344.13" stroke="#FABEB3" stroke-opacity="0.5" stroke-miterlimit="10"/>
<path d="M600.26 648.08C572.34 660.62 530.74 675.2 479.38 677.34C447.41 678.67 442.21 673.91 382.28 668.03C288.02 658.77 240.11 654.56 202.04 674.68C187.51 682.36 196.07 681.12 130.21 729.88C96.6898 754.7 77.6797 767.45 51.0697 769.78C31.6297 771.48 15.3497 766.99 4.98975 763.13" stroke="#FABEB3" stroke-opacity="0.5" stroke-miterlimit="10"/>
<path d="M600.26 668.03C588.21 672.6 579.74 678.44 574.49 682.66C550.01 702.31 530.31 738.82 537.91 762.47C539.08 766.11 542.44 774.25 541.24 785.08C540.35 793.08 537.39 798.77 536.58 800.38C529.4 814.65 522.96 842.46 515.3 875.53C503.3 927.32 532.24 939.35 531.26 1023.84C530.87 1057.27 526.27 1062.11 531.26 1080.37C541.68 1118.48 574.19 1142.93 600.26 1157.69" stroke="#FABEB3" stroke-opacity="0.5" stroke-miterlimit="10"/>
<path d="M4.97998 863.57C14.87 950.04 42.03 993.13 66.36 1016.54C71.61 1021.6 84.19 1032.91 103.6 1052.45C137.14 1086.22 154.09 1103.5 163.46 1122.95C179.59 1156.47 167.55 1168.24 180.75 1192.12C197.93 1223.19 227.46 1217 275.19 1242.67C333.78 1274.17 320.89 1298.07 378.94 1331.79C398.94 1343.41 445.71 1366.85 507.97 1366.37C548.22 1366.06 580.32 1355.86 600.25 1347.75" stroke="#FABEB3" stroke-opacity="0.5" stroke-miterlimit="10"/>
<path d="M4.97996 1278.58C27.22 1294.29 67.82 1328.06 83.65 1381C88.33 1396.64 92.41 1410.94 87.64 1427.56C79.76 1455.03 57.09 1456.19 39.75 1490.08C35.09 1499.18 24.6 1519.69 27.78 1544.62C29.44 1557.63 38.22 1573.86 55.71 1605.81C64.05 1621.03 66.12 1623.82 73 1636.4C87.57 1663.04 92.01 1675.65 99.6 1690.94C124.38 1740.84 140.32 1736.49 158.13 1778.73C165.54 1796.3 174.13 1816.68 171.43 1842.58C167.64 1879.04 143.9 1903.12 127.53 1919.73C84.91 1962.98 33.47 1977.9 4.95996 1983.58" stroke="#FABEB3" stroke-opacity="0.5" stroke-miterlimit="10"/>
<path d="M600.26 1515.35C585.73 1527.44 566.75 1547.32 555.87 1576.54C534.79 1633.12 552.93 1700.89 600.26 1753.45" stroke="#FABEB3" stroke-opacity="0.5" stroke-miterlimit="10"/>
<path d="M533.83 680.66C529.9 680.59 520.37 680.88 510.43 686.46C506.14 688.87 501.4 691.53 501.63 694.66C501.92 698.52 509.69 701.34 515.23 702.06C532.39 704.28 550.38 689.21 548.63 683.86C547.67 680.92 540.69 680.79 533.83 680.66Z" stroke="#FABEB3" stroke-opacity="0.5" stroke-miterlimit="10"/>
<path d="M70.9898 1043.97C64.8998 1046.05 62.0198 1063.45 69.8398 1073.81C73.7198 1078.94 81.2598 1083.73 85.7198 1081.46C91.3298 1078.61 90.9698 1065.14 86.0998 1056.02C82.8398 1049.92 75.7398 1042.35 70.9898 1043.97Z" stroke="#FABEB3" stroke-opacity="0.5" stroke-miterlimit="10"/>
<path d="M594.44 1267.94C580.07 1270.97 568.85 1281.11 566.51 1293.21C563.24 1310.09 577.33 1330.15 600.26 1333.11" stroke="#FABEB3" stroke-opacity="0.5" stroke-miterlimit="10"/>
<path d="M56.8001 1492.63C51.3301 1494.02 52.62 1514.1 52.76 1516.3C52.89 1518.29 54.6201 1542.45 63.7301 1544.01C68.0801 1544.75 72.99 1540.15 75.27 1535.93C84.1 1519.65 63.8501 1490.84 56.8001 1492.64V1492.63Z" fill="#FABEB3" fill-opacity="0.5" stroke="#FABEB3" stroke-opacity="0.5" stroke-miterlimit="10"/>
<path d="M585.1 1862.71C568.87 1854.17 537.42 1869.84 535.47 1887.98C534.01 1901.52 549.32 1913.4 560.74 1922.27C571.16 1930.36 578.82 1936.31 585.1 1934C600.37 1928.38 606.81 1874.13 585.1 1862.71Z" stroke="#FABEB3" stroke-opacity="0.5" stroke-miterlimit="10"/>
<path d="M57.7701 1915.6C53.7401 1923.56 47.0801 1936.73 53.1101 1943.53C58.1801 1949.24 70.2401 1948.28 77.7201 1942.86C89.6901 1934.19 85.8901 1917.03 85.7001 1916.26C84.1701 1909.85 79.2301 1899.76 72.4001 1899.63C65.9101 1899.51 61.3901 1908.44 57.7701 1915.59V1915.6Z" stroke="#FABEB3" stroke-opacity="0.5" stroke-miterlimit="10"/>
<path d="M4.97998 302.57C15.34 314.25 30.4 334.19 40.09 362.43C54.95 405.75 48.57 443.47 46.08 457.2C38.81 497.26 26.3 496.11 21.14 535.01C16.85 567.35 24.34 576.78 21.14 612.82C18.55 642.03 11 665.4 4.97998 680.66" stroke="#FABEB3" stroke-opacity="0.5" stroke-miterlimit="10"/>
<path d="M4.97998 2068.36C22.47 2076.48 48.64 2091.83 66.03 2120.24C91.85 2162.43 73.66 2193.22 100.95 2234.97C111.61 2251.28 113.07 2244.57 170.78 2291.83C217.24 2329.88 240.76 2349.42 254.58 2374.63C273.76 2409.61 263 2420.41 281.52 2444.46C304.73 2474.63 338.28 2479.26 379.29 2491.35C458.71 2514.76 463.56 2541.64 525.94 2558.19C556.7 2566.35 582.92 2569.11 600.26 2570.16" stroke="#FABEB3" stroke-opacity="0.5" stroke-miterlimit="10"/>
<path d="M600.26 2636.01C577.66 2652.97 544.1 2682.15 514.96 2726.79C499.52 2750.45 436.31 2847.32 461.09 2949.26C478.71 3021.74 520.7 3014.02 534.91 3078.95C552.79 3160.61 487.97 3180.12 472.06 3321.37C465.53 3379.31 457.88 3447.22 493.01 3503.94C503.11 3520.25 518.6 3538.62 533.91 3574.77C547.27 3606.33 547.55 3620.84 559.85 3654.58C567.24 3674.85 579.5 3703.49 600.25 3736.38" stroke="#FABEB3" stroke-opacity="0.5" stroke-miterlimit="10"/>
<path d="M4.97998 2427.51C24.54 2442.31 56.24 2470.39 79 2515.3C119.14 2594.49 103.51 2670.83 96.96 2702.85C78.9 2791.09 28.96 2848.3 4.97998 2872.45" stroke="#FABEB3" stroke-opacity="0.5" stroke-miterlimit="10"/>
<path d="M4.97973 3437.1C23.6897 3448.37 49.7297 3466.04 76.9997 3491.97C119.69 3532.56 154.8 3565.93 162.8 3614.68C170.94 3664.27 143.6 3684.55 160.8 3739.38C166.97 3759.04 175.43 3772.21 185.74 3788.26C225.46 3850.09 258.69 3852.64 273.53 3885.03C299.37 3941.41 240.9 4025.83 197.71 4066.6C124.13 4136.05 31.5597 4138.64 4.96973 4138.43" stroke="#FABEB3" stroke-opacity="0.5" stroke-miterlimit="10"/>
<path d="M600.26 4048.64C521.85 4087.2 489.16 4132.66 474.06 4168.35C444.02 4239.38 479.99 4280.34 443.13 4362.89C435.95 4378.97 401.29 4456.61 334.39 4472.63C294.13 4482.27 284.48 4459.48 226.65 4458.66C169.51 4457.85 84.1 4478.76 60.05 4532.48C42.74 4571.14 71.25 4595.41 54.06 4651.2C43.04 4686.96 20.66 4711.64 4.97998 4726.02" stroke="#FABEB3" stroke-opacity="0.5" stroke-miterlimit="10"/>
<path d="M4.97994 4812.82C31.5499 4835.93 70.4299 4873.9 106.93 4928.54C149.45 4992.19 199.2 5066.64 175.77 5128.06C156.72 5178.01 108.44 5169.08 82.9899 5228.82C70.9699 5257.02 80.1299 5262.79 78.9999 5356.52C77.5099 5479.91 61.1399 5512.16 42.0899 5532.1C27.4199 5547.46 11.0299 5555.65 0.189941 5560.03" stroke="#FABEB3" stroke-opacity="0.5" stroke-miterlimit="10"/>
<path d="M600.26 4764.94C586.29 4817.9 560.47 4895.77 509.98 4981.42C482.46 5028.1 476.78 5027.61 462.09 5058.24C425.97 5133.56 406.23 5249.32 455.11 5360.52C496.39 5454.44 568.57 5504.06 600.26 5523.13" stroke="#FABEB3" stroke-opacity="0.5" stroke-miterlimit="10"/>
<path d="M601.26 5587.98C560.6 5606.91 502.77 5638.85 445.13 5691.73C349.46 5779.51 340.51 5845.92 269.55 5889.26C222.19 5918.18 143.18 5939.28 5.97998 5897.24" stroke="#FABEB3" stroke-opacity="0.5" stroke-miterlimit="10"/>
<path d="M13.1201 2532.2C5.05007 2533.78 1.84007 2568.59 15.1201 2586.07C17.8301 2589.63 19.4601 2590.16 20.6101 2590.06C26.5301 2589.54 32.3001 2571.07 28.5901 2555.14C26.0901 2544.4 18.4301 2531.15 13.1301 2532.19L13.1201 2532.2Z" stroke="#FABEB3" stroke-opacity="0.5" stroke-miterlimit="10"/>
<path d="M42.0297 3421.69C40.6797 3430.11 47.1297 3431.07 64.4697 3462.83C73.6697 3479.69 76.5297 3487.99 83.9197 3489.01C91.1997 3490.02 98.8697 3483.4 102.62 3477.04C108.69 3466.74 103.76 3458.3 102.62 3438.14C101.02 3409.93 109.29 3402.23 103.37 3396.25C91.7097 3384.49 45.5097 3400.03 42.0297 3421.68V3421.69Z" stroke="#FABEB3" stroke-opacity="0.5" stroke-miterlimit="10"/>
<path d="M528.89 4128.2C520.69 4125.7 508.71 4137.01 506.76 4149.17C505.31 4158.19 509 4169.96 516.08 4171.89C524.38 4174.15 535.83 4162.43 537.63 4150.34C538.9 4141.8 535.78 4130.31 528.89 4128.21V4128.2Z" fill="#FABEB3" fill-opacity="0.5" stroke="#FABEB3" stroke-opacity="0.5" stroke-miterlimit="10"/>
<path d="M101.96 4077.04C98.9899 4082.5 102.86 4091.23 107.95 4095.5C117.56 4103.56 133.61 4097.43 143.86 4093.5C151.5 4090.58 163.24 4086.09 162.81 4081.53C161.93 4072.15 109.61 4062.94 101.95 4077.04H101.96Z" stroke="#FABEB3" stroke-opacity="0.5" stroke-miterlimit="10"/>
<path d="M136.56 5031.94C128.26 5032.7 117.66 5077.89 135.06 5089.8C139.32 5092.72 146.75 5094.66 151.02 5091.3C163.28 5081.62 145.56 5031.11 136.55 5031.94H136.56Z" stroke="#FABEB3" stroke-opacity="0.5" stroke-miterlimit="10"/>
<path d="M512.89 5657C475.62 5683.91 470.05 5685.92 470.21 5692.45C470.52 5705.54 493.41 5719.95 514.34 5717.77C538.24 5715.28 553.14 5691.85 555.57 5672.92C557.06 5661.37 554.96 5643.34 545.44 5639.64C539.35 5637.27 533.57 5642.07 512.89 5657Z" fill="#FABEB3" fill-opacity="0.5" stroke="#FABEB3" stroke-opacity="0.5" stroke-miterlimit="10"/>
<path d="M499.1 2872.53C490.33 2874.41 491.59 2907.36 491.69 2909.6C492.19 2920.99 493.06 2940.98 504.2 2945.28C511.05 2947.92 520.8 2944.25 525.51 2937.87C539.85 2918.44 510.35 2870.12 499.1 2872.54V2872.53Z" fill="#FABEB3" fill-opacity="0.5" stroke="#FABEB3" stroke-opacity="0.5" stroke-miterlimit="10"/>
</g>
<defs>
<clipPath id="clip0_643_2">
<rect width="601.47" height="5921.42" fill="white"/>
</clipPath>
</defs>
</svg>

<?xml version="1.0" encoding="UTF-8"?><svg id="Calque_2" xmlns="http://www.w3.org/2000/svg" viewBox="0 0 601.47 5921.42"><g id="Calque_1-2"><path d="m540.57.42c-1.63,3.39-5.16,11.95-2.66,21.82,2.93,11.55,12.33,17.78,16.63,20.62,10.87,7.19,16.81,4.74,29.93,11.97,7.47,4.12,12.72,8.86,15.8,11.97" style="fill:none; stroke:#fabeb3; stroke-miterlimit:10;"/><path d="m501.33.42c15.73,10.06,22.25,20.6,25.27,28.47,2.89,7.5,1.9,10.75,5.99,19.29,2.62,5.49,8.32,17.4,19.95,23.28,10.81,5.47,16.27.42,32.59,5.99,6.67,2.28,11.8,5.18,15.13,7.32" style="fill:none; stroke:#fabeb3; stroke-miterlimit:10;"/><path d="m4.98,123.99c24.69,7,38.27,18.3,46.08,27.27,8.24,9.46,8.62,14.66,21.95,33.92,6.11,8.83,15.5,22.4,26.6,33.25,14.11,13.79,26.41,18.7,59.86,33.25,62.69,27.28,56.05,25.93,64.51,28.6,40.67,12.83,59.86,1.6,125.04-2.66,42.95-2.81,95.54-6.25,149.64,9.98,45.47,13.64,79.24,37.33,101.59,56.53" style="fill:none; stroke:#fabeb3; stroke-miterlimit:10;"/><path d="m600.26,648.08c-27.92,12.54-69.52,27.12-120.88,29.26-31.97,1.33-37.17-3.43-97.1-9.31-94.26-9.26-142.17-13.47-180.24,6.65-14.53,7.68-5.97,6.44-71.83,55.2-33.52,24.82-52.53,37.57-79.14,39.9-19.44,1.7-35.72-2.79-46.08-6.65" style="fill:none; stroke:#fabeb3; stroke-miterlimit:10;"/><path d="m600.26,668.03c-12.05,4.57-20.52,10.41-25.77,14.63-24.48,19.65-44.18,56.16-36.58,79.81,1.17,3.64,4.53,11.78,3.33,22.61-.89,8-3.85,13.69-4.66,15.3-7.18,14.27-13.62,42.08-21.28,75.15-12,51.79,16.94,63.82,15.96,148.31-.39,33.43-4.99,38.27,0,56.53,10.42,38.11,42.93,62.56,69,77.32" style="fill:none; stroke:#fabeb3; stroke-miterlimit:10;"/><path d="m4.98,863.57c9.89,86.47,37.05,129.56,61.38,152.97,5.25,5.06,17.83,16.37,37.24,35.91,33.54,33.77,50.49,51.05,59.86,70.5,16.13,33.52,4.09,45.29,17.29,69.17,17.18,31.07,46.71,24.88,94.44,50.55,58.59,31.5,45.7,55.4,103.75,89.12,20,11.62,66.77,35.06,129.03,34.58,40.25-.31,72.35-10.51,92.28-18.62" style="fill:none; stroke:#fabeb3; stroke-miterlimit:10;"/><path d="m4.98,1278.58c22.24,15.71,62.84,49.48,78.67,102.42,4.68,15.64,8.76,29.94,3.99,46.56-7.88,27.47-30.55,28.63-47.89,62.52-4.66,9.1-15.15,29.61-11.97,54.54,1.66,13.01,10.44,29.24,27.93,61.19,8.34,15.22,10.41,18.01,17.29,30.59,14.57,26.64,19.01,39.25,26.6,54.54,24.78,49.9,40.72,45.55,58.53,87.79,7.41,17.57,16,37.95,13.3,63.85-3.79,36.46-27.53,60.54-43.9,77.15-42.62,43.25-94.06,58.17-122.57,63.85" style="fill:none; stroke:#fabeb3; stroke-miterlimit:10;"/><path d="m600.26,1515.35c-14.53,12.09-33.51,31.97-44.39,61.19-21.08,56.58-2.94,124.35,44.39,176.91" style="fill:none; stroke:#fabeb3; stroke-miterlimit:10;"/><path d="m533.83,680.66c-3.93-.07-13.46.22-23.4,5.8-4.29,2.41-9.03,5.07-8.8,8.2.29,3.86,8.06,6.68,13.6,7.4,17.16,2.22,35.15-12.85,33.4-18.2-.96-2.94-7.94-3.07-14.8-3.2Z" style="fill:none; stroke:#fabeb3; stroke-miterlimit:10;"/><path d="m70.99,1043.97c-6.09,2.08-8.97,19.48-1.15,29.84,3.88,5.13,11.42,9.92,15.88,7.65,5.61-2.85,5.25-16.32.38-25.44-3.26-6.1-10.36-13.67-15.11-12.05Z" style="fill:none; stroke:#fabeb3; stroke-miterlimit:10;"/><path d="m594.44,1267.94c-14.37,3.03-25.59,13.17-27.93,25.27-3.27,16.88,10.82,36.94,33.75,39.9" style="fill:none; stroke:#fabeb3; stroke-miterlimit:10;"/><path d="m56.8,1492.63c-5.47,1.39-4.18,21.47-4.04,23.67.13,1.99,1.86,26.15,10.97,27.71,4.35.74,9.26-3.86,11.54-8.08,8.83-16.28-11.42-45.09-18.47-43.29Z" style="fill:#fabeb3; stroke:#fabeb3; stroke-miterlimit:10;"/><path d="m585.1,1862.71c-16.23-8.54-47.68,7.13-49.63,25.27-1.46,13.54,13.85,25.42,25.27,34.29,10.42,8.09,18.08,14.04,24.36,11.73,15.27-5.62,21.71-59.87,0-71.29Z" style="fill:none; stroke:#fabeb3; stroke-miterlimit:10;"/><path d="m57.77,1915.6c-4.03,7.96-10.69,21.13-4.66,27.93,5.07,5.71,17.13,4.75,24.61-.67,11.97-8.67,8.17-25.83,7.98-26.6-1.53-6.41-6.47-16.5-13.3-16.63-6.49-.12-11.01,8.81-14.63,15.96Z" style="fill:none; stroke:#fabeb3; stroke-miterlimit:10;"/><path d="m4.98,302.57c10.36,11.68,25.42,31.62,35.11,59.86,14.86,43.32,8.48,81.04,5.99,94.77-7.27,40.06-19.78,38.91-24.94,77.81-4.29,32.34,3.2,41.77,0,77.81-2.59,29.21-10.14,52.58-16.16,67.84" style="fill:none; stroke:#fabeb3; stroke-miterlimit:10;"/><path d="m4.98,2068.36c17.49,8.12,43.66,23.47,61.05,51.88,25.82,42.19,7.63,72.98,34.92,114.73,10.66,16.31,12.12,9.6,69.83,56.86,46.46,38.05,69.98,57.59,83.8,82.8,19.18,34.98,8.42,45.78,26.94,69.83,23.21,30.17,56.76,34.8,97.77,46.89,79.42,23.41,84.27,50.29,146.65,66.84,30.76,8.16,56.98,10.92,74.32,11.97" style="fill:none; stroke:#fabeb3; stroke-miterlimit:10;"/><path d="m600.26,2636.01c-22.6,16.96-56.16,46.14-85.3,90.78-15.44,23.66-78.65,120.53-53.87,222.47,17.62,72.48,59.61,64.76,73.82,129.69,17.88,81.66-46.94,101.17-62.85,242.42-6.53,57.94-14.18,125.85,20.95,182.57,10.1,16.31,25.59,34.68,40.9,70.83,13.36,31.56,13.64,46.07,25.94,79.81,7.39,20.27,19.65,48.91,40.4,81.8" style="fill:none; stroke:#fabeb3; stroke-miterlimit:10;"/><path d="m4.98,2427.51c19.56,14.8,51.26,42.88,74.02,87.79,40.14,79.19,24.51,155.53,17.96,187.55-18.06,88.24-68,145.45-91.98,169.6" style="fill:none; stroke:#fabeb3; stroke-miterlimit:10;"/><path d="m4.98,3437.1c18.71,11.27,44.75,28.94,72.02,54.87,42.69,40.59,77.8,73.96,85.8,122.71,8.14,49.59-19.2,69.87-2,124.7,6.17,19.66,14.63,32.83,24.94,48.88,39.72,61.83,72.95,64.38,87.79,96.77,25.84,56.38-32.63,140.8-75.82,181.57-73.58,69.45-166.15,72.04-192.74,71.83" style="fill:none; stroke:#fabeb3; stroke-miterlimit:10;"/><path d="m600.26,4048.64c-78.41,38.56-111.1,84.02-126.2,119.71-30.04,71.03,5.93,111.99-30.93,194.54-7.18,16.08-41.84,93.72-108.74,109.74-40.26,9.64-49.91-13.15-107.74-13.97-57.14-.81-142.55,20.1-166.6,73.82-17.31,38.66,11.2,62.93-5.99,118.72-11.02,35.76-33.4,60.44-49.08,74.82" style="fill:none; stroke:#fabeb3; stroke-miterlimit:10;"/><path d="m4.98,4812.82c26.57,23.11,65.45,61.08,101.95,115.72,42.52,63.65,92.27,138.1,68.84,199.52-19.05,49.95-67.33,41.02-92.78,100.76-12.02,28.2-2.86,33.97-3.99,127.7-1.49,123.39-17.86,155.64-36.91,175.58-14.67,15.36-31.06,23.55-41.9,27.93" style="fill:none; stroke:#fabeb3; stroke-miterlimit:10;"/><path d="m600.26,4764.94c-13.97,52.96-39.79,130.83-90.28,216.48-27.52,46.68-33.2,46.19-47.89,76.82-36.12,75.32-55.86,191.08-6.98,302.28,41.28,93.92,113.46,143.54,145.15,162.61" style="fill:none; stroke:#fabeb3; stroke-miterlimit:10;"/><path d="m601.26,5587.98c-40.66,18.93-98.49,50.87-156.13,103.75-95.67,87.78-104.62,154.19-175.58,197.53-47.36,28.92-126.37,50.02-263.57,7.98" style="fill:none; stroke:#fabeb3; stroke-miterlimit:10;"/><path d="m13.12,2532.2c-8.07,1.58-11.28,36.39,2,53.87,2.71,3.56,4.34,4.09,5.49,3.99,5.92-.52,11.69-18.99,7.98-34.92-2.5-10.74-10.16-23.99-15.46-22.95Z" style="fill:none; stroke:#fabeb3; stroke-miterlimit:10;"/><path d="m42.03,3421.69c-1.35,8.42,5.1,9.38,22.44,41.14,9.2,16.86,12.06,25.16,19.45,26.18,7.28,1.01,14.95-5.61,18.7-11.97,6.07-10.3,1.14-18.74,0-38.9-1.6-28.21,6.67-35.91.75-41.89-11.66-11.76-57.86,3.78-61.34,25.43Z" style="fill:none; stroke:#fabeb3; stroke-miterlimit:10;"/><path d="m528.89,4128.2c-8.2-2.5-20.18,8.81-22.13,20.97-1.45,9.02,2.24,20.79,9.32,22.72,8.3,2.26,19.75-9.46,21.55-21.55,1.27-8.54-1.85-20.03-8.74-22.13Z" style="fill:#fabeb3; stroke:#fabeb3; stroke-miterlimit:10;"/><path d="m101.96,4077.04c-2.97,5.46.9,14.19,5.99,18.46,9.61,8.06,25.66,1.93,35.91-2,7.64-2.92,19.38-7.41,18.95-11.97-.88-9.38-53.2-18.59-60.86-4.49Z" style="fill:none; stroke:#fabeb3; stroke-miterlimit:10;"/><path d="m136.56,5031.94c-8.3.76-18.9,45.95-1.5,57.86,4.26,2.92,11.69,4.86,15.96,1.5,12.26-9.68-5.46-60.19-14.47-59.36Z" style="fill:none; stroke:#fabeb3; stroke-miterlimit:10;"/><path d="m512.89,5657c-37.27,26.91-42.84,28.92-42.68,35.45.31,13.09,23.2,27.5,44.13,25.32,23.9-2.49,38.8-25.92,41.23-44.85,1.49-11.55-.61-29.58-10.13-33.28-6.09-2.37-11.87,2.43-32.55,17.36Z" style="fill:#fabeb3; stroke:#fabeb3; stroke-miterlimit:10;"/><path d="m499.1,2872.53c-8.77,1.88-7.51,34.83-7.41,37.07.5,11.39,1.37,31.38,12.51,35.68,6.85,2.64,16.6-1.03,21.31-7.41,14.34-19.43-15.16-67.75-26.41-65.33Z" style="fill:#fabeb3; stroke:#fabeb3; stroke-miterlimit:10;"/></g></svg>
